src/svg/28/check_shield_outline_28.svg

<?xml version="1.0" encoding="UTF-8"?>
<svg width="28px" height="28px" viewBox="0 0 28 28" version="1.1" xmlns="http://www.w3.org/2000/svg" xmlns:xlink="http://www.w3.org/1999/xlink">
    <!-- Generator: Sketch 63.1 (92452) - https://sketch.com -->
    <title>check_shield_outline_28</title>
    <desc>Created with Sketch.</desc>
    <g id="Page-1" stroke="none" stroke-width="1" fill="none" fill-rule="evenodd">
        <g id="check_shield_outline_28">
            <rect x="0" y="0" width="28" height="28"></rect>
            <path d="M13.4840062,1.50205868 C13.8335867,1.4521796 14.1664133,1.4521796 14.5159938,1.50205868 C14.8612514,1.55132096 15.1493105,1.62901095 15.8123926,1.8500383 L15.8123926,1.8500383 L22.6324555,4.12339262 C23.4491398,4.39562072 24,5.1598984 24,6.02075922 L24,6.02075922 L24,15.3 C24,20.0944152 21.121608,23.7673421 15.5418763,26.2423253 L15.5418763,26.2423253 L15.1736034,26.4022101 C14.4236763,26.7209843 13.5763399,26.7209846 12.8264126,26.4022108 C7.00734004,23.9286807 4,20.2024821 4,15.3 L4,15.3 L4,6.02075922 C4,5.1598984 4.55086019,4.39562072 5.36754447,4.12339262 L5.36754447,4.12339262 L12.3757136,1.78791531 C12.9088733,1.61375723 13.1732744,1.54639473 13.4840062,1.50205868 Z M14.2334896,3.482006 C14.0712963,3.45886383 13.9287037,3.45886383 13.7665104,3.482006 C13.5666156,3.51052752 13.378447,3.5612769 12.820063,3.7474049 L12.820063,3.7474049 L6,6.02075922 L6,15.3 C6,19.3159455 8.47106668,22.3776828 13.6088075,24.5615973 C13.8587843,24.6678556 14.1412308,24.6678555 14.3841008,24.5646504 L14.3841008,24.5646504 L14.7380987,24.4109651 C19.6407731,22.2362725 22,19.225818 22,15.3 L22,15.3 L22,6.02075922 L15.0231463,3.6955147 C14.6814341,3.58338606 14.5024123,3.53204854 14.3550749,3.50269146 L14.3550749,3.50269146 Z M19.4071068,10.4928932 C19.7675907,10.8533772 19.7953203,11.4206082 19.4902954,11.8128994 L19.4071068,11.9071068 L13.4071068,17.9071068 C13.0466228,18.2675907 12.4793918,18.2953203 12.0871006,17.9902954 L11.9928932,17.9071068 L8.74289322,14.6571068 C8.35236893,14.2665825 8.35236893,13.6334175 8.74289322,13.2428932 C9.10337718,12.8824093 9.67060824,12.8546797 10.0628994,13.1597046 L10.1571068,13.2428932 L12.7,15.785 L17.9928932,10.4928932 C18.3834175,10.1023689 19.0165825,10.1023689 19.4071068,10.4928932 Z" id="↳-Icon-Color" fill="currentColor" fill-rule="nonzero"></path>
        </g>
    </g>
</svg>

<svg fill="none" height="28" width="28" xmlns="http://www.w3.org/2000/svg"><g fill="#000"><path d="M13.484 1.502c.35-.05.682-.05 1.032 0 .345.05.633.127 1.296.348l6.82 2.273A2 2 0 0124 6.021V15.3c0 4.794-2.878 8.467-8.458 10.942l-.368.16a3 3 0 01-2.348 0C7.007 23.93 4 20.202 4 15.3V6.02a2 2 0 011.368-1.897l7.008-2.335c.533-.174.797-.242 1.108-.286zm.75 1.98a1.58 1.58 0 00-.468 0c-.2.029-.388.08-.946.265L6 6.021V15.3c0 4.016 2.471 7.078 7.609 9.262.25.106.532.106.775.003l.354-.154C19.641 22.236 22 19.226 22 15.3V6.02l-6.977-2.324a5.976 5.976 0 00-.668-.193z"/><path d="M19.057 10.693a1 1 0 00-1.414 0l-4.893 4.893-1.893-1.893a1 1 0 00-1.414 1.414l2.6 2.6a1 1 0 001.414 0l5.6-5.6a1 1 0 000-1.414z"/></g></svg>
